static/fa/svgs/regular/face-grin-tongue.svg

<svg xmlns="http://www.w3.org/2000/svg" viewBox="0 0 512 512"><!--! Font Awesome Free 6.1.1 by @fontawesome - https://fontawesome.com License - https://fontawesome.com/license/free (Icons: CC BY 4.0, Fonts: SIL OFL 1.1, Code: MIT License) Copyright 2022 Fonticons, Inc.--><path d="M144.4 208c0-17.7 14.3-32 32-32 17.6 0 32 14.3 32 32s-14.4 32-32 32c-17.7 0-32-14.3-32-32zm224 0c0 17.7-14.4 32-32 32-17.7 0-32-14.3-32-32s14.3-32 32-32c17.6 0 32 14.3 32 32zM512 256c0 141.4-114.6 256-256 256S0 397.4 0 256 114.6 0 256 0s256 114.6 256 256zM256 48C141.1 48 48 141.1 48 256c0 81.7 47.13 152.4 115.7 186.4-2.4-8.4-3.7-17.2-3.7-26.4v-52.4c-8.9-8-16.7-17.1-23.1-27.1-10.4-16.1 6.8-33.4 25.4-28.1 29 6.7 60.5 10.4 93.6 10.4 33.1 0 64.7-3.7 93.6-10.4 18.7-5.3 35.9 12 24.6 28.1-5.5 9.9-13.3 19-22.1 27V416c0 9.2-1.3 18-3.7 26.4C416.9 408.4 464 337.7 464 256c0-114.9-93.1-208-208.9-208h.9zm64 368v-37.4c0-14.7-11.9-26.6-26.6-26.6h-2c-11.3 0-21.1 7.9-23.6 18.9-3.7 12.6-20.8 12.6-23.6 0-2.5-11-12.3-18.9-23.6-18.9h-2c-14.7 0-26.6 11.9-26.6 26.6V416c0 35.3 28.7 64 64 64s64-28.7 64-64z"/></svg>

<svg xmlns="http://www.w3.org/2000/svg" viewBox="0 0 512 512"><!--! Font Awesome Free 6.1.1 by @fontawesome - https://fontawesome.com License - https://fontawesome.com/license/free (Icons: CC BY 4.0, Fonts: SIL OFL 1.1, Code: MIT License) Copyright 2022 Fonticons, Inc. --><path d="M144.4 208C144.4 190.3 158.7 176 176.4 176C194 176 208.4 190.3 208.4 208C208.4 225.7 194 240 176.4 240C158.7 240 144.4 225.7 144.4 208zM368.4 208C368.4 225.7 354 240 336.4 240C318.7 240 304.4 225.7 304.4 208C304.4 190.3 318.7 176 336.4 176C354 176 368.4 190.3 368.4 208zM512 256C512 397.4 397.4 512 256 512C114.6 512 0 397.4 0 256C0 114.6 114.6 0 256 0C397.4 0 512 114.6 512 256zM256 48C141.1 48 48 141.1 48 256C48 337.7 95.13 408.4 163.7 442.4C161.3 434 160 425.2 160 416V363.6C151.1 355.6 143.3 346.5 136.9 336.5C126.5 320.4 143.7 303.1 162.3 308.4C191.3 315.1 222.8 318.8 255.9 318.8C289 318.8 320.6 315.1 349.5 308.4C368.2 303.1 385.4 320.4 374.1 336.5C368.6 346.4 360.8 355.5 352 363.5V416C352 425.2 350.7 434 348.3 442.4C416.9 408.4 464 337.7 464 256C464 141.1 370.9 48 255.1 48H256zM320 416V378.6C320 363.9 308.1 352 293.4 352H291.4C280.1 352 270.3 359.9 267.8 370.9C264.1 383.5 247 383.5 244.2 370.9C241.7 359.9 231.9 352 220.6 352H218.6C203.9 352 192 363.9 192 378.6V416C192 451.3 220.7 480 256 480C291.3 480 320 451.3 320 416z"/></svg>
